src/assets/duotone/EyeSlash.svg

<svg width="24" height="24" viewBox="0 0 24 24"  xmlns="http://www.w3.org/2000/svg">
<path opacity="0.4" d="M21.2501 9.15004C20.7601 8.37004 20.2001 7.67004 19.6201 7.04004L15.8501 10.81C15.9701 11.18 16.0401 11.58 16.0401 12C16.0401 14.24 14.2301 16.04 12.0001 16.04C11.5801 16.04 11.1801 15.97 10.8101 15.85L7.3501 19.31C8.8101 20.13 10.3901 20.56 12.0001 20.56C13.7801 20.56 15.5101 20.04 17.0901 19.07C18.6701 18.09 20.0901 16.66 21.2501 14.84C22.2501 13.28 22.2501 10.72 21.2501 9.15004Z" />
<path d="M14.0201 9.98014L9.98014 14.0201C9.47014 13.5001 9.14014 12.7801 9.14014 12.0001C9.14014 10.4301 10.4201 9.14014 12.0001 9.14014C12.7801 9.14014 13.5001 9.47014 14.0201 9.98014Z" />
<path opacity="0.4" d="M18.25 5.75018L14.86 9.14018C14.13 8.40018 13.12 7.96018 12 7.96018C9.76 7.96018 7.96 9.77018 7.96 12.0002C7.96 13.1202 8.41 14.1302 9.14 14.8602L5.76 18.2502H5.75C4.64 17.3502 3.62 16.2002 2.75 14.8402C1.75 13.2702 1.75 10.7202 2.75 9.15018C3.91 7.33017 5.33 5.90018 6.91 4.92018C8.49 3.96018 10.22 3.43018 12 3.43018C14.23 3.43018 16.39 4.25018 18.25 5.75018Z" />
<path d="M14.8601 12.0001C14.8601 13.5701 13.5801 14.8601 12.0001 14.8601C11.9401 14.8601 11.8901 14.8601 11.8301 14.8401L14.8401 11.8301C14.8601 11.8901 14.8601 11.9401 14.8601 12.0001Z" />
<path d="M21.7699 2.22988C21.4699 1.92988 20.9799 1.92988 20.6799 2.22988L2.22988 20.6899C1.92988 20.9899 1.92988 21.4799 2.22988 21.7799C2.37988 21.9199 2.56988 21.9999 2.76988 21.9999C2.96988 21.9999 3.15988 21.9199 3.30988 21.7699L21.7699 3.30988C22.0799 3.00988 22.0799 2.52988 21.7699 2.22988Z" />
</svg>

<?xml version="1.0" encoding="UTF-8"?>
<svg width="24" height="24" viewBox="0 0 24 24" xmlns="http://www.w3.org/2000/svg">
 <path d="m21.25 9.15c-0.49-0.78-1.05-1.48-1.63-2.11l-3.77 3.77c0.12 0.37 0.19 0.77 0.19 1.19 0 2.24-1.81 4.04-4.04 4.04-0.42 0-0.82-0.07-1.19-0.19l-3.46 3.46c1.46 0.82 3.04 1.25 4.65 1.25 1.78 0 3.51-0.52 5.09-1.49 1.58-0.98 3-2.41 4.16-4.23 1-1.56 1-4.12 0-5.69z" opacity=".4"/>
 <path d="m14.02 9.9801-4.04 4.04c-0.51-0.52-0.84-1.24-0.84-2.02 0-1.57 1.28-2.86 2.86-2.86 0.78 0 1.5 0.33 2.02 0.84z"/>
 <path d="m18.25 5.7502-3.39 3.39c-0.73-0.74-1.74-1.18-2.86-1.18-2.24 0-4.04 1.81-4.04 4.04 0 1.12 0.45 2.13 1.18 2.86l-3.38 3.39h-0.01c-1.11-0.9-2.13-2.05-3-3.41-1-1.57-1-4.12 0-5.69 1.16-1.82 2.58-3.25 4.16-4.23 1.58-0.96 3.31-1.49 5.09-1.49 2.23 0 4.39 0.82 6.25 2.32z" opacity=".4"/>
 <path d="m14.86 12c0 1.57-1.28 2.86-2.86 2.86-0.06 0-0.11 0-0.17-0.02l3.01-3.01c0.02 0.06 0.02 0.11 0.02 0.17z"/>
 <path d="m21.77 2.2299c-0.3-0.3-0.79-0.3-1.09 0l-18.45 18.46c-0.3 0.3-0.3 0.79 0 1.09 0.15 0.14 0.34 0.22 0.54 0.22s0.39-0.08 0.54-0.23l18.46-18.46c0.31-0.3 0.31-0.78 0-1.08z"/>
</svg>
